icons/1_Primary/IDrive.svg

<svg xmlns="http://www.w3.org/2000/svg" width="1024" height="1024" fill="none">
   <g clip-path="url(#a)">
      <path fill="#FF837D" d="M512 1024c282.77 0 512-229.23 512-512S794.77 0 512 0 0 229.23 0 512s229.23 512 512 512Z"/>
      <path fill="#fff" d="M198.82 439.12a17.146 17.146 0 0 1 12.24-4.77h16.8V590.5h-34.09V450.69a15.306 15.306 0 0 1 5-11.57h.05Zm137.84 111.44c7.04-7.26 10.56-19.97 10.56-38.13 0-17.547-3.36-30.41-10.08-38.59-6.407-8.167-16.65-12.25-30.73-12.25h-31.69v100.77h27.36c15.68 0 27.203-3.933 34.57-11.8h.01Zm-30.25-116.21c25.286 0 44.17 6.357 56.65 19.07 12.486 13.333 18.73 33 18.73 59 0 13.927-2.24 26.487-6.72 37.68-5.12 11.5-11.844 20.277-20.17 26.33a67.12 67.12 0 0 1-22.57 10.89c-7.68 2.12-19.347 3.18-35 3.18h-55.74V450.69a15.318 15.318 0 0 1 5-11.57 17.17 17.17 0 0 1 12.24-4.77h47.58Zm149.32 35.41a100.132 100.132 0 0 0-25.21 3.18 60.82 60.82 0 0 0-21.36 10A49.488 49.488 0 0 0 394 502.21c-3.68 8-5.52 17.91-5.52 29.73v58.56h33.61v-62.18c0-9.087 2.24-15.753 6.72-20 4.48-4.247 11.37-6.353 20.67-6.32h11v-32.24h-4.8.05Zm32.43 0h-17.29V590.5h33.61V485.19a14.502 14.502 0 0 0-4.8-10.89 16.23 16.23 0 0 0-11.52-4.54Zm120.76 0c-7.68 0-12.8 3.633-15.36 10.9l-22.56 74-25.45-84.89H510l44.66 120.73h34.09l45.13-120.74h-24.96Zm-122.92-44c-10.19 0-18.45 7.81-18.45 17.45s8.26 17.45 18.45 17.45 18.46-7.81 18.46-17.45-8.26-17.45-18.46-17.45Zm333.5-23.38c-10.667-18.567-26.407-30.63-47.22-36.19-20.83-5.56-40.43-2.92-59.1 7.73s-30.6 26.58-36.18 47.41c-.85 3.2-1.51 6.41-2.07 9.52 11-5.65 22-8.29 32.61-7.83 4-9.61 10.74-17.15 20.17-22.71a47.07 47.07 0 0 1 36.66-4.81c12.91 3.49 22.71 10.93 29.31 22.43a46.454 46.454 0 0 1 6.22 29.6c8.86 4.9 16.87 12.91 24.13 23.84 1.23-3.11 2.35-6.31 3.4-9.71 5.46-20.83 2.92-40.62-7.92-59.28h-.01Zm3.58 118-17.16 64.09a54.112 54.112 0 0 1-26.29 33.93c-13.38 7.73-27.53 9.71-42.41 5.75l-64.18-17.25a56.075 56.075 0 0 1-34.083-26.13 56.056 56.056 0 0 1-5.597-42.58l17.15-64.09a53.706 53.706 0 0 1 23.65-32.42 21.874 21.874 0 0 1 2.45-1.6 53.379 53.379 0 0 1 28-7.64c4.965.028 9.907.7 14.7 2l64.09 17.25a51.427 51.427 0 0 1 14.24 5.84 53.46 53.46 0 0 1 17.72 17 29.546 29.546 0 0 1 2.07 3.39 36.227 36.227 0 0 1 1.79 3.3c6.24 12.4 7.47 25.41 3.88 39.17l-.02-.01Zm-35.78 9.12c0-20-5.12-35.587-15.36-46.76-10.56-10.893-25.444-16.34-44.65-16.34-18.247 0-32.49 5.6-42.73 16.8-9.92 10.893-14.884 26.023-14.89 45.39 0 20.28 5.12 35.867 15.36 46.76 10.246 11.2 24.49 16.8 42.73 16.8 15.046 0 27.53-3.48 37.45-10.44 9.92-6.667 16.643-16.333 20.17-29h-24c-3.847 0-6.807.757-8.88 2.27-2.074 1.513-3.274 2.723-3.6 3.63l-2.64 2.5a6.786 6.786 0 0 1-2.65 1.59 28.379 28.379 0 0 1-13.92 3.18c-8.327 0-14.567-2.423-18.72-7.27-4.487-4.54-6.89-11.5-7.21-20.88h83.07a7.53 7.53 0 0 0 .48-3.18v-5l-.01-.05Zm-59.05-36.77c-7.04 0-12.8 2.12-17.28 6.36s-6.884 10.293-7.21 18.16h49c-.667-8.173-2.907-14.227-6.72-18.16-4.167-4.233-10.09-6.353-17.77-6.36h-.02Z"/>
   </g>
   <defs>
      <clipPath id="a">
         <path fill="#fff" d="M0 0h1024v1024H0z"/>
      </clipPath>
   </defs>
</svg>

<svg width="1024" height="1024" viewBox="0 0 1024 1024" fill="none" xmlns="http://www.w3.org/2000/svg">
<g clip-path="url(#clip0_2_2487)">
<path d="M512 1024C794.77 1024 1024 794.77 1024 512C1024 229.23 794.77 0 512 0C229.23 0 0 229.23 0 512C0 794.77 229.23 1024 512 1024Z" fill="#FF837D"/>
<path d="M198.82 439.12C200.446 437.559 202.365 436.335 204.465 435.516C206.565 434.698 208.806 434.302 211.06 434.35H227.86V590.5H193.77V450.69C193.734 448.517 194.162 446.361 195.024 444.366C195.886 442.372 197.163 440.583 198.77 439.12H198.82ZM336.66 550.56C343.7 543.3 347.22 530.59 347.22 512.43C347.22 494.883 343.86 482.02 337.14 473.84C330.733 465.673 320.49 461.59 306.41 461.59H274.72V562.36H302.08C317.76 562.36 329.283 558.427 336.65 550.56H336.66ZM306.41 434.35C331.696 434.35 350.58 440.707 363.06 453.42C375.546 466.753 381.79 486.42 381.79 512.42C381.79 526.347 379.55 538.907 375.07 550.1C369.95 561.6 363.226 570.377 354.9 576.43C348.127 581.445 340.47 585.139 332.33 587.32C324.65 589.44 312.983 590.5 297.33 590.5H241.59V450.69C241.555 448.517 241.983 446.362 242.845 444.367C243.707 442.372 244.983 440.583 246.59 439.12C248.217 437.56 250.135 436.336 252.235 435.517C254.335 434.699 256.576 434.302 258.83 434.35H306.41ZM455.73 469.76C447.225 469.745 438.754 470.814 430.52 472.94C422.815 474.848 415.559 478.245 409.16 482.94C402.57 487.99 397.357 494.617 394 502.21C390.32 510.21 388.48 520.12 388.48 531.94V590.5H422.09V528.32C422.09 519.233 424.33 512.567 428.81 508.32C433.29 504.073 440.18 501.967 449.48 502H460.48V469.76H455.68H455.73ZM488.16 469.76H470.87V590.5H504.48V485.19C504.495 483.138 504.076 481.107 503.248 479.23C502.421 477.353 501.205 475.672 499.68 474.3C496.59 471.324 492.449 469.691 488.16 469.76ZM608.92 469.76C601.24 469.76 596.12 473.393 593.56 480.66L571 554.66L545.55 469.77H510L554.66 590.5H588.75L633.88 469.76H608.92ZM486 425.76C475.81 425.76 467.55 433.57 467.55 443.21C467.55 452.85 475.81 460.66 486 460.66C496.19 460.66 504.46 452.85 504.46 443.21C504.46 433.57 496.2 425.76 486 425.76ZM819.5 402.38C808.833 383.813 793.093 371.75 772.28 366.19C751.45 360.63 731.85 363.27 713.18 373.92C694.51 384.57 682.58 400.5 677 421.33C676.15 424.53 675.49 427.74 674.93 430.85C685.93 425.2 696.93 422.56 707.54 423.02C711.54 413.41 718.28 405.87 727.71 400.31C733.179 397.075 739.247 394.981 745.548 394.155C751.848 393.328 758.251 393.786 764.37 395.5C777.28 398.99 787.08 406.43 793.68 417.93C798.997 426.826 801.187 437.246 799.9 447.53C808.76 452.43 816.77 460.44 824.03 471.37C825.26 468.26 826.38 465.06 827.43 461.66C832.89 440.83 830.35 421.04 819.51 402.38H819.5ZM823.08 520.38L805.92 584.47C804.084 591.62 800.805 598.319 796.284 604.154C791.762 609.989 786.095 614.837 779.63 618.4C766.25 626.13 752.1 628.11 737.22 624.15L673.04 606.9C665.92 604.998 659.245 601.711 653.397 597.228C647.549 592.744 642.642 587.152 638.957 580.77C635.271 574.389 632.88 567.343 631.92 560.037C630.959 552.731 631.449 545.307 633.36 538.19L650.51 474.1C653.908 460.643 662.384 449.025 674.16 441.68C674.94 441.093 675.758 440.558 676.61 440.08C685.058 434.996 694.75 432.352 704.61 432.44C709.575 432.468 714.517 433.14 719.31 434.44L783.4 451.69C788.412 452.911 793.213 454.88 797.64 457.53C804.786 461.745 810.852 467.565 815.36 474.53C816.125 475.612 816.817 476.745 817.43 477.92C818.083 478.988 818.681 480.09 819.22 481.22C825.46 493.62 826.69 506.63 823.1 520.39L823.08 520.38ZM787.3 529.5C787.3 509.5 782.18 493.913 771.94 482.74C761.38 471.847 746.496 466.4 727.29 466.4C709.043 466.4 694.8 472 684.56 483.2C674.64 494.093 669.676 509.223 669.67 528.59C669.67 548.87 674.79 564.457 685.03 575.35C695.276 586.55 709.52 592.15 727.76 592.15C742.806 592.15 755.29 588.67 765.21 581.71C775.13 575.043 781.853 565.377 785.38 552.71H761.38C757.533 552.71 754.573 553.467 752.5 554.98C750.426 556.493 749.226 557.703 748.9 558.61L746.26 561.11C745.51 561.837 744.604 562.381 743.61 562.7C739.316 564.929 734.525 566.024 729.69 565.88C721.363 565.88 715.123 563.457 710.97 558.61C706.483 554.07 704.08 547.11 703.76 537.73H786.83C787.217 536.717 787.381 535.632 787.31 534.55V529.55L787.3 529.5ZM728.25 492.73C721.21 492.73 715.45 494.85 710.97 499.09C706.49 503.33 704.086 509.383 703.76 517.25H752.76C752.093 509.077 749.853 503.023 746.04 499.09C741.873 494.857 735.95 492.737 728.27 492.73H728.25Z" fill="white"/>
</g>
<defs>
<clipPath id="clip0_2_2487">
<rect width="1024" height="1024" fill="white"/>
</clipPath>
</defs>
</svg>
